@extra/icons/0nyX/symbolic-22/cs-overview.svg

<?xml version="1.0" encoding="UTF-8" standalone="no"?>
<svg xmlns="http://www.w3.org/2000/svg" version="1.1" viewBox="-3 -3 22 22">
 <g fill="#f1f2f2">
  <g fill-opacity=".978">
   <path d="m3.138 4a0.138 0.138 0 0 0 -0.138 0.138v3.862h4v-3.862a0.138 0.138 0 0 0 -0.138 -0.138z" stroke-width=".219"/>
   <path d="m9.138 5c-0.076 0-0.138 0.045-0.138 0.1v2.9h4v-2.9c0-0.056-0.062-0.101-0.138-0.101z" stroke-width="0.187"/>
   <path d="m6.138 10c-0.076 0-0.138 0.03-0.138 0.069v1.931h4v-1.931c0-0.038-0.062-0.069-0.138-0.069z" stroke-width=".155"/>
  </g>
  <g transform="translate(0,-1)">
   <path fill="#f1f2f2" d="m1.8574 3c-0.4748 0-0.8574 0.3826-0.8574 0.8574v10.286c0 0.474 0.3826 0.857 0.8574 0.857h12.286c0.474 0 0.857-0.383 0.857-0.857v-10.286c0-0.4744-0.383-0.857-0.857-0.857zm0.1426 1h12v10h-12z"/>
  </g>
 </g>
</svg>

<svg xmlns="http://www.w3.org/2000/svg" viewBox="-3 -3 22 22">
    <g fill="#f1f2f2">
        <path stroke-linejoin="round" d="M.848 1A.845.845 0 0 0 0 1.848v12.304c0 .47.378.848.848.848h14.304c.47 0 .848-.378.848-.848V1.848A.846.846 0 0 0 15.152 1H.848zM2.5 3h11c.277 0 .5.223.5.5v9c0 .277-.223.5-.5.5h-11a.499.499 0 0 1-.5-.5v-9c0-.277.223-.5.5-.5z" stroke-linecap="round" stroke-width=".402"/>
        <path d="M3.138 4A.138.138 0 0 0 3 4.138V8h4V4.138A.138.138 0 0 0 6.862 4z" fill-opacity=".978" stroke-width=".219"/>
        <path d="M9.138 5C9.062 5 9 5.045 9 5.1V8h4V5.1c0-.056-.062-.101-.138-.101z" fill-opacity=".978" stroke-width=".187"/>
        <path d="M6.138 10c-.076 0-.138.03-.138.069V12h4v-1.931c0-.038-.062-.069-.138-.069z" fill-opacity=".978" stroke-width=".155"/>
    </g>
</svg>
